X:3
T:Dark Island, The
T:Dr. Mackays Farewell To Creagorry
T:Dr. McInnes's Farewell To South Uist
R:Air
M:3/4
L:1/8
Q:54
K:Gmaj
% Violin
%%MIDI program 40
EG | "Am"A4 A2 | "Em"G4 G2 | "C"E3 D C2 | "G"D4 GA | B3 A G2 | "Em"B d3 G2 | "Am"B3 A G2 | "D"A4 E2|
"Am"A4 A2 | "Em"G4 G2 | "C"E3 D C2 | "G"D4 GA | B3 D dB | "D"A3 D BA | "C"G6 | "G"G4 Bc ||
"G"d3 D D2 | B3 A G2 | "C"E3 C E2 | "G"D4 GA | B3 A G2 | "Em"B d3 GA | "Am"B3 A G2 | "D"A4 E2 |
"Am"A4 A2 | "Em"G4 G2 | "C"E3 D C2 | "G"D4 GA | B3 D dB | "D"A3 D BA | "C"G6 | "G"G6 ||
